X:1
T:26
L:1/8
Q:1/4=60
M:3/4
K:C
V:1 treble nm="Piano" snm="Pno."
V:1
 C>D E G2 c | B>A (3GAB E2 | DF A3 c | BA G4 | cB/c/ B G2 E | BA/B/ A F2 D | E/F/G/A/ GB, F>E | %7
 C6 |] %8

